X:48
T:Falcarragh House* (h)
B:NFID.246c (PT) ("untitled hornpipe")
048falc_h
S:PT
N:I wasn't sure what the source notation was trying to tell
me about pickup notes and first endings, so I simplified
things a little.
L:1/8
M:C
R:hornpipe
Q:300
K:A
cB|AcBc Acec|dcBc defg|aecd edcA|=GABc dBG2|
AcBc Acec|dcBc defg|aecB Aced|c2B2A2:|
fg|a2ec Acec|dcBc defg|aecd edcA|=GABc dBG2|
AcBc Acec|dcBc defg|aecB Aced|1 c2B2A2:|2 c2B2 HA4|]

%%%

